src/assets/logo.svg

<svg xmlns="http://www.w3.org/2000/svg" viewBox="0 0 460 510">
  <path d="M445.012 379.743S328.102 157.52 96.302 51.1c0 0-8.877-3.389-10.99 5.01-2.113 8.398 8.14 9.715 13.988 15.029 5.85 5.313 196.923 114.895 345.712 360.705L460 496.972l-4.996 13.025-83.93-102.2s-208.598 7.279-298.751-159.311c0 0 63.373-18.325 80.932-17.034 0 0-44.299-29.872-98.917-18.035l-20.983-51.1s13.326-17.767 72.94-26.05c0 0-48.676-28.926-83.93-11.022v2.004S-3.422 43.024.383-.001c0 0 139.43 14.515 211.823 51.1 0 0-7.022 30.478 29.975 54.107 0 0-6.936-31.735 2.998-42.083 0 0 256.39 100.123 199.833 316.62z"/>
</svg>

<?xml version="1.0" encoding="UTF-8" standalone="no"?>
<!DOCTYPE svg PUBLIC "-//W3C//DTD SVG 1.1//EN" "http://www.w3.org/Graphics/SVG/1.1/DTD/svg11.dtd">
<svg width="100%" height="100%" viewBox="0 0 510 510" version="1.1" xmlns="http://www.w3.org/2000/svg" xmlns:xlink="http://www.w3.org/1999/xlink" xml:space="preserve" xmlns:serif="http://www.serif.com/" style="fill-rule:evenodd;clip-rule:evenodd;stroke-linejoin:round;stroke-miterlimit:2;">
    <g transform="matrix(1,0,0,1,25.0002,0)">
        <path d="M445.012,379.743C445.012,379.743 328.102,157.52 96.302,51.1C96.302,51.1 87.425,47.711 85.312,56.11C83.199,64.508 93.452,65.825 99.3,71.139C105.15,76.452 296.223,186.034 445.012,431.844L460,496.972L455.004,509.997L371.074,407.797C371.074,407.797 162.476,415.076 72.323,248.486C72.323,248.486 135.696,230.161 153.255,231.452C153.255,231.452 108.956,201.58 54.338,213.417L33.355,162.317C33.355,162.317 46.681,144.55 106.295,136.267C106.295,136.267 57.619,107.341 22.365,125.245L22.365,127.249C22.365,127.249 -3.422,43.024 0.383,-0.001C0.383,-0.001 139.813,14.514 212.206,51.099C212.206,51.099 205.184,81.577 242.181,105.206C242.181,105.206 235.245,73.471 245.179,63.123C245.179,63.123 501.569,163.246 445.012,379.743Z" style="fill-rule:nonzero;"/>
    </g>
</svg>
